icons/svg/dumbbell.svg

﻿<?xml version="1.0" encoding="utf-8"?>
<!DOCTYPE svg PUBLIC "-//W3C//DTD SVG 1.1//EN" "http://www.w3.org/Graphics/SVG/1.1/DTD/svg11.dtd">
<svg xmlns="http://www.w3.org/2000/svg" xmlns:xlink="http://www.w3.org/1999/xlink" version="1.1" baseProfile="full" width="24" height="24" viewBox="0 0 24.00 24.00" enable-background="new 0 0 24.00 24.00" xml:space="preserve">
	<path fill="#000000" fill-opacity="1" stroke-linejoin="round" d="M 4.22183,14.1213L 3.51472,13.4142C 2.73367,12.6332 2.73367,11.3668 3.51472,10.5858C 4.29577,9.80474 5.5621,9.80474 6.34315,10.5858L 8.92157,13.1642L 13.1642,8.92158L 10.5858,6.34315C 9.80473,5.5621 9.80473,4.29577 10.5858,3.51472C 11.3668,2.73367 12.6332,2.73367 13.4142,3.51472L 14.1213,4.22182L 19.7782,9.87868L 20.4853,10.5858C 21.2663,11.3668 21.2663,12.6332 20.4853,13.4142C 19.7042,14.1953 18.4379,14.1953 17.6568,13.4142L 15.0784,10.8358L 10.8358,15.0784L 13.4142,17.6569C 14.1953,18.4379 14.1953,19.7042 13.4142,20.4853C 12.6332,21.2663 11.3668,21.2663 10.5858,20.4853L 9.87868,19.7782L 4.22183,14.1213 Z M 3.16117,19.4246L 4.22183,18.364L 2.80761,16.9497C 2.41709,16.5592 2.41709,15.9261 2.80761,15.5355C 3.19814,15.145 3.8313,15.145 4.22183,15.5355L 8.46447,19.7782C 8.85499,20.1687 8.85499,20.8019 8.46447,21.1924C 8.07394,21.5829 7.44078,21.5829 7.05025,21.1924L 5.63604,19.7782L 4.57538,20.8388L 3.16117,19.4246 Z M 19.4246,3.16117L 20.8388,4.57538L 19.7782,5.63604L 21.1924,7.05026C 21.5829,7.44079 21.5829,8.07395 21.1924,8.46447C 20.8019,8.855 20.1687,8.855 19.7782,8.46447L 15.5355,4.22183C 15.145,3.8313 15.145,3.19814 15.5355,2.80761C 15.9261,2.41709 16.5592,2.41709 16.9497,2.80762L 18.364,4.22183L 19.4246,3.16117 Z "/>
</svg>

<svg xmlns="http://www.w3.org/2000/svg" version="1.1" baseProfile="full" width="24" height="24" viewBox="0 0 24.00 24.00" xml:space="preserve"><path fill="#000" fill-opacity="1" stroke-linejoin="round" d="M4.222 14.12l-.707-.706c-.78-.78-.78-2.047 0-2.828.78-.78 2.047-.78 2.828 0l2.58 2.578 4.24-4.242-2.577-2.58c-.78-.78-.78-2.046 0-2.827.78-.78 2.047-.78 2.828 0l.707.707L19.78 9.88l.707.706c.78.78.78 2.047 0 2.828-.78.78-2.047.78-2.828 0l-2.58-2.578-4.24 4.242 2.577 2.58c.78.78.78 2.046 0 2.827-.78.78-2.047.78-2.828 0l-.707-.707L4.22 14.12zm-1.06 5.305l1.06-1.06-1.414-1.415c-.39-.39-.39-1.024 0-1.414.39-.39 1.023-.39 1.414 0l4.242 4.242c.39.39.39 1.024 0 1.414-.39.39-1.023.39-1.414 0l-1.414-1.414-1.06 1.06-1.415-1.413zM19.424 3.16l1.414 1.415-1.062 1.06 1.414 1.415c.39.39.39 1.024 0 1.414-.39.39-1.023.39-1.414 0l-4.242-4.242c-.39-.39-.39-1.024 0-1.414.39-.39 1.023-.39 1.414 0l1.414 1.414 1.06-1.06z"/></svg>
